X: 2
T:High Caul'd Cap, The
M:2/4
L:1/8
R:Northern Polka
K:G
D[|:G>A Bd|c/2B/2A/2G/2 B/2A/2G/2A/2|BA AG/2A/2|BA AD|!
G/2F/2G/2A/2 Bd|c/2B/2A/2G/2 B2/c/2A/2B/2|GE ED/2E/2|1GE ED:|2GE Ed|!
|:eg dB|c/2B/2A/2G/2 B/2A/2G/2A/2|BA AG/2A/2|BA Ad|!
e/2f/2g/2e/2 dB/2d/2|c/2B/A2/G/2 B/2c/2A/2B/2|GE ED/2E/2|1GE Ed:|2GE ED|
